static/img/kroki/6287cf47953cb68a6fadd943820a2601.svg

<?xml version="1.0" encoding="us-ascii" standalone="no"?><svg xmlns="http://www.w3.org/2000/svg" xmlns:xlink="http://www.w3.org/1999/xlink" contentStyleType="text/css" height="252px" preserveAspectRatio="none" style="width:414px;height:252px;" version="1.1" viewBox="0 0 414 252" width="414px" zoomAndPan="magnify"><defs/><g><!--class azure_cosmos_db_restorable_account--><g id="elem_azure_cosmos_db_restorable_account"><rect codeLine="23" fill="#3D176E" height="39.7891" id="azure_cosmos_db_restorable_account" rx="2.5" ry="2.5" style="stroke:#000D19;stroke-width:0.5;" width="354" x="30" y="7"/><ellipse cx="45" cy="26.8945" fill="#ADD1B2" rx="11" ry="11" style="stroke:#181818;stroke-width:1.0;"/><path d="M47.9688,32.5352 Q47.3906,32.832 46.75,32.9727 Q46.1094,33.1289 45.4063,33.1289 Q42.9063,33.1289 41.5781,31.4883 Q40.2656,29.832 40.2656,26.707 Q40.2656,23.582 41.5781,21.9258 Q42.9063,20.2695 45.4063,20.2695 Q46.1094,20.2695 46.75,20.4258 Q47.4063,20.582 47.9688,20.8789 L47.9688,23.5977 Q47.3438,23.0195 46.75,22.7539 Q46.1563,22.4727 45.5313,22.4727 Q44.1875,22.4727 43.5,23.5508 Q42.8125,24.6133 42.8125,26.707 Q42.8125,28.8008 43.5,29.8789 Q44.1875,30.9414 45.5313,30.9414 Q46.1563,30.9414 46.75,30.6758 Q47.3438,30.3945 47.9688,29.8164 L47.9688,32.5352 Z " fill="#000000"/><text fill="#D9B8FF" font-family="Helvetica" font-size="17" lengthAdjust="spacing" textLength="312" x="64" y="32.7798">azure_cosmos_db_restorable_account</text></g><!--class azure_cosmos_db_restorable_sql_container--><g id="elem_azure_cosmos_db_restorable_sql_container"><rect codeLine="26" fill="#3D176E" height="39.7891" id="azure_cosmos_db_restorable_sql_container" rx="2.5" ry="2.5" style="stroke:#000D19;stroke-width:0.5;" width="400" x="7" y="206.58"/><ellipse cx="22" cy="226.4745" fill="#ADD1B2" rx="11" ry="11" style="stroke:#181818;stroke-width:1.0;"/><path d="M24.9688,232.1152 Q24.3906,232.412 23.75,232.5527 Q23.1094,232.7089 22.4063,232.7089 Q19.9063,232.7089 18.5781,231.0683 Q17.2656,229.412 17.2656,226.287 Q17.2656,223.162 18.5781,221.5058 Q19.9063,219.8495 22.4063,219.8495 Q23.1094,219.8495 23.75,220.0058 Q24.4063,220.162 24.9688,220.4589 L24.9688,223.1777 Q24.3438,222.5995 23.75,222.3339 Q23.1563,222.0527 22.5313,222.0527 Q21.1875,222.0527 20.5,223.1308 Q19.8125,224.1933 19.8125,226.287 Q19.8125,228.3808 20.5,229.4589 Q21.1875,230.5214 22.5313,230.5214 Q23.1563,230.5214 23.75,230.2558 Q24.3438,229.9745 24.9688,229.3964 L24.9688,232.1152 Z " fill="#000000"/><text fill="#D9B8FF" font-family="Helvetica" font-size="17" lengthAdjust="spacing" textLength="358" x="41" y="232.3598">azure_cosmos_db_restorable_sql_container</text></g><!--class azure_cosmos_db_restorable_sql_database--><g id="elem_azure_cosmos_db_restorable_sql_database"><rect codeLine="29" fill="#3D176E" height="39.7891" id="azure_cosmos_db_restorable_sql_database" rx="2.5" ry="2.5" style="stroke:#000D19;stroke-width:0.5;" width="396" x="9" y="106.79"/><ellipse cx="24" cy="126.6845" fill="#ADD1B2" rx="11" ry="11" style="stroke:#181818;stroke-width:1.0;"/><path d="M26.9688,132.3252 Q26.3906,132.622 25.75,132.7627 Q25.1094,132.9189 24.4063,132.9189 Q21.9063,132.9189 20.5781,131.2783 Q19.2656,129.622 19.2656,126.497 Q19.2656,123.372 20.5781,121.7158 Q21.9063,120.0595 24.4063,120.0595 Q25.1094,120.0595 25.75,120.2158 Q26.4063,120.372 26.9688,120.6689 L26.9688,123.3877 Q26.3438,122.8095 25.75,122.5439 Q25.1563,122.2627 24.5313,122.2627 Q23.1875,122.2627 22.5,123.3408 Q21.8125,124.4033 21.8125,126.497 Q21.8125,128.5908 22.5,129.6689 Q23.1875,130.7314 24.5313,130.7314 Q25.1563,130.7314 25.75,130.4658 Q26.3438,130.1845 26.9688,129.6064 L26.9688,132.3252 Z " fill="#000000"/><text fill="#D9B8FF" font-family="Helvetica" font-size="17" lengthAdjust="spacing" textLength="354" x="43" y="132.5698">azure_cosmos_db_restorable_sql_database</text></g><!--link azure_cosmos_db_restorable_account to azure_cosmos_db_restorable_sql_database--><g id="link_azure_cosmos_db_restorable_account_azure_cosmos_db_restorable_sql_database"><path codeLine="32" d="M207,47.22 C207,64.36 207,83.27 207,100.41 " fill="none" id="azure_cosmos_db_restorable_account-to-azure_cosmos_db_restorable_sql_database" style="stroke:#1A83AF;stroke-width:2.0;"/><polygon fill="#1A83AF" points="207,106.41,211,97.41,207,101.41,203,97.41,207,106.41" style="stroke:#1A83AF;stroke-width:2.0;"/></g><!--link azure_cosmos_db_restorable_sql_database to azure_cosmos_db_restorable_sql_container--><g id="link_azure_cosmos_db_restorable_sql_database_azure_cosmos_db_restorable_sql_container"><path codeLine="33" d="M207,147.01 C207,164.15 207,183.06 207,200.2 " fill="none" id="azure_cosmos_db_restorable_sql_database-to-azure_cosmos_db_restorable_sql_container" style="stroke:#1A83AF;stroke-width:2.0;"/><polygon fill="#1A83AF" points="207,206.2,211,197.2,207,201.2,203,197.2,207,206.2" style="stroke:#1A83AF;stroke-width:2.0;"/></g><!--SRC=[bP11Jy9048Nl_HMRS2QX4WKk9fM4w8KOyMPCC-tEmePs5sS62HZ_krJKhAr0lSxxvirxix0Q5POhsQeIomo98rvQjmA2KYL4VZFsXIVLCGPCVr0N9zx9MM0A9QfRB5vHR0vrud5XywL3PdKHI3UGB-VarquVx8N0yLv29m4rBe0v4I6RhGM3C7gK3OsfatNJJb_7WojiO9uqqXVIw_LqFAeZPq-TxFr3pEmELHm-RUe56p4R9pwfaoah8WZPAFgj7yru3rfRDrUNmUpXa8aSqg_vR07QRohQGC7X6HOazB9TuRZH2aT3RGP_mdV7u2YlNgTWjoPCSy-bvrHdAI6B9yWAJ27FzskYtgBe_JpDByLUS0AswjH-HuD01eo7bHPnka-TE1dsaybpzxgjUTGsn7_CVzf67m00]--></g></svg>

<svg xmlns="http://www.w3.org/2000/svg" width="414" height="252" viewBox="0 0 414 252"><rect width="354" height="39.789" x="30" y="7" fill="#3D176E" rx="2.5" ry="2.5" style="stroke:#000d19;stroke-width:.5"/><circle cx="45" cy="26.895" r="11" fill="#ADD1B2" style="stroke:#181818;stroke-width:1"/><path d="M47.969 32.535q-.578.297-1.219.438-.64.156-1.344.156-2.5 0-3.828-1.64-1.312-1.657-1.312-4.782t1.312-4.781q1.328-1.656 3.828-1.656.703 0 1.344.156.656.156 1.219.453v2.719q-.625-.578-1.219-.844-.594-.281-1.219-.281-1.343 0-2.031 1.078-.687 1.062-.687 3.156t.687 3.172q.688 1.062 2.031 1.062.625 0 1.219-.265.594-.281 1.219-.86z"/><text x="64" y="32.78" fill="#D9B8FF" font-family="Helvetica" font-size="17" textLength="312">azure_cosmos_db_restorable_account</text><rect width="400" height="39.789" x="7" y="206.58" fill="#3D176E" rx="2.5" ry="2.5" style="stroke:#000d19;stroke-width:.5"/><circle cx="22" cy="226.475" r="11" fill="#ADD1B2" style="stroke:#181818;stroke-width:1"/><path d="M24.969 232.115q-.578.297-1.219.438-.64.156-1.344.156-2.5 0-3.828-1.64-1.312-1.657-1.312-4.782t1.312-4.781q1.328-1.656 3.828-1.656.703 0 1.344.156.656.156 1.219.453v2.719q-.625-.578-1.219-.844-.594-.281-1.219-.281-1.343 0-2.031 1.078-.687 1.062-.687 3.156t.687 3.172q.688 1.062 2.031 1.062.625 0 1.219-.265.594-.281 1.219-.86z"/><text x="41" y="232.36" fill="#D9B8FF" font-family="Helvetica" font-size="17" textLength="358">azure_cosmos_db_restorable_sql_container</text><rect width="396" height="39.789" x="9" y="106.79" fill="#3D176E" rx="2.5" ry="2.5" style="stroke:#000d19;stroke-width:.5"/><circle cx="24" cy="126.684" r="11" fill="#ADD1B2" style="stroke:#181818;stroke-width:1"/><path d="M26.969 132.325q-.578.297-1.219.438-.64.156-1.344.156-2.5 0-3.828-1.64-1.312-1.657-1.312-4.782t1.312-4.781q1.328-1.656 3.828-1.656.703 0 1.344.156.656.156 1.219.453v2.719q-.625-.579-1.219-.844-.594-.281-1.219-.281-1.343 0-2.031 1.078-.687 1.062-.687 3.156t.687 3.172q.688 1.062 2.031 1.062.625 0 1.219-.265.594-.281 1.219-.86z"/><text x="43" y="132.57" fill="#D9B8FF" font-family="Helvetica" font-size="17" textLength="354">azure_cosmos_db_restorable_sql_database</text><path fill="none" d="M207 47.22v53.19" style="stroke:#1a83af;stroke-width:2"/><path fill="#1A83AF" d="m207 106.41 4-9-4 4-4-4z" style="stroke:#1a83af;stroke-width:2"/><path fill="none" d="M207 147.01v53.19" style="stroke:#1a83af;stroke-width:2"/><path fill="#1A83AF" d="m207 206.2 4-9-4 4-4-4z" style="stroke:#1a83af;stroke-width:2"/></svg>
